!!!SOCIAL_FUNCTION:	dream songs
!!!PDT:	1932
!!!OTL: No_50_Song_Concerning_the_Kinewuk.krn
!!!REG: Wisconsin
!!!LANG: Non-Tone
!!!LING_GROUP: Algonquin
**kern
*staff1
=1-
*clefF4
*k[b-e-]
*M2/4
4c\
[4c\
=2
8c\]
8r
16c\LL
16c\J
8c\J
=3||
*M3/4
4c\
4c\
4r
=4
4c\
4B-\
16G\LL
16G\J
8B-\J
=5
4B-\
4B-\
4r
=6
4B-\
4G\
16F\LL
16F\J
8G\J
=7
4F\
4F\
4r
=8
16B-\LK
8B-\
16B-\Jk
8B-\L
[8G\J
4G\]
=9||
*M2/4
4G\
16G\LL
16F\J
8G\J
=10||
*M3/4
4F\
4F\
4r
=11
8E-\L
8D\J
4C/
16BB-/LL
16BB-/J
8C/J
=12||
*M2/4
4C/
8C/
8r
=13||
*M3/4
4C/
4BB-/
16GG/LL
16GG/J
8BB-/J
=14||
*M2/4
4BB-/
8GG/
8r
=15||
*M3/4
4BB-/
4GG/
16FF/LL
16FF/J
8GG/J
=16
4FF/
2FF/
==
*-
